svgs/sharp-light/trees.svg

<svg xmlns="http://www.w3.org/2000/svg" viewBox="0 0 640 512"><!--! Font Awesome Pro 6.6.0 by @fontawesome - https://fontawesome.com License - https://fontawesome.com/license (Commercial License) Copyright 2024 Fonticons, Inc. --><path d="M203.5 12.9L192 1 180.5 12.9 63.6 134.1l-4.5 4.6 0 6.5 0 14.8 0 16 16 0 22.8 0L33.7 246.5 29.5 251l0 6.2 0 14.8 0 16 16 0 25.8 0L3.4 375.4 0 379.7l0 5.5L0 400l0 16 16 0 116.9 0 16 0 27.1 0 0 80 0 16 32 0 0-16 0-80 27.1 0 16 0L368 416l16 0 0-16 0-14.8 0-5.5-3.4-4.3L312.7 288l25.8 0 16 0 0-16 0-14.8 0-6.2-4.2-4.6L286.1 176l22.8 0 16 0 0-16 0-14.8 0-6.5-4.5-4.6L203.5 12.9zM208 384l0-176 0-16-32 0 0 16 0 176-27.1 0-16 0-95.7 0 79.4-102.2L136.7 256 104 256l-35.7 0L146 170.8 170.4 144l-36.2 0-35.7 0L192 47l93.5 97-35.7 0-36.2 0L238 170.8 315.7 256 280 256l-32.7 0 20.1 25.8L346.8 384l-95.7 0-16 0L208 384zM464 192l-32 0 0 16 0 288 0 16 32 0 0-16 0-80 27.1 0 16 0L624 416l16 0 0-16 0-14.8 0-5.5-3.4-4.3L568.7 288l25.8 0 16 0 0-16 0-14.8 0-6.2-4.2-4.6L542.1 176l22.8 0 16 0 0-16 0-14.8 0-6.5-4.5-4.6L459.5 12.9 448 1 436.5 12.9l-94.3 97.7 1.2 1.3 13.4 13.9 0 15.6L448 47l93.5 97-35.7 0-36.2 0L494 170.8 571.7 256 536 256l-32.7 0 20.1 25.8L602.8 384l-95.7 0-16 0L464 384l0-176 0-16z"/></svg>

<svg xmlns="http://www.w3.org/2000/svg" viewBox="0 0 640 512"><!--! Font Awesome Pro 6.5.2 by @fontawesome - https://fontawesome.com License - https://fontawesome.com/license (Commercial License) Copyright 2024 Fonticons, Inc. --><path d="M203.5 12.9L192 1 180.5 12.9 63.6 134.1l-4.5 4.6v6.5V160v16h16H97.9L33.7 246.5 29.5 251v6.2V272v16h16H71.3L3.4 375.4 0 379.7v5.5V400v16H16 132.9h16H176v80 16h32V496 416h27.1 16H368h16V400 385.2v-5.5l-3.4-4.3L312.7 288h25.8 16V272 257.2 251l-4.2-4.6L286.1 176h22.8 16V160 145.2v-6.5l-4.5-4.6L203.5 12.9zM208 384V208 192H176v16V384H148.9h-16H37.2l79.4-102.2L136.7 256H104 68.3L146 170.8 170.4 144H134.2 98.5L192 47l93.5 97H249.8 213.6L238 170.8 315.7 256H280 247.3l20.1 25.8L346.8 384H251.1h-16H208zM464 192H432v16V496v16h32V496 416l27.1 0h16H624h16V400 385.2v-5.5l-3.4-4.3L568.7 288h25.8 16V272 257.2 251l-4.2-4.6L542.1 176h22.8 16V160 145.2v-6.5l-4.5-4.6L459.5 12.9 448 1 436.5 12.9l-94.3 97.7 1.2 1.3 13.4 13.9v15.6L448 47l93.5 97H505.8 469.6L494 170.8 571.7 256H536 503.3l20.1 25.8L602.8 384H507.1h-16H464V208 192z"/></svg>
